X:1162
T:Polska efter Bergström
R:Polska
Z:Göran Hed 2009-02-07
O:Ovansjö, Gästrikland
S:efter Bergström
M: 3/4
L: 1/16
K:C
C2E2 G2c2 e2g2|gfaf d2dc BcBA|G2c2 cBBc dcBA|G2g2 g2^fg agec|
C2E2 G2c2 e2g2|gfaf d2dc BcBA|G2g2 g2^fg a=fdB| (5:4GBdBd c8:|
|:egge c2cB c2e2|faaf d2d^c d2f2|fege c2cB d2G2|c2Bc dcBc d2G2|
eg^fg agfg c'2g2| eg^fg agfg c'2g2|efge defd cdec|(5:4BcdBd c8:|
(:musicend:)

[[!Ackord]]

(:music:)
